packages/sources/icons/src/vitamix/money-pound-box-fill.svg

<svg width="16" height="16" viewBox="0 0 16 16" fill="none" xmlns="http://www.w3.org/2000/svg">
<path fill-rule="evenodd" clip-rule="evenodd" d="M14 2H1.99999C1.63181 2 1.33333 2.29848 1.33333 2.66667V13.3333C1.33333 13.7015 1.63181 14 1.99999 14H14C14.3682 14 14.6667 13.7015 14.6667 13.3333V2.66667C14.6667 2.29848 14.3682 2 14 2ZM5.99999 10V8.66667H5.33333V7.33333H5.99999V6.66667C6.001 5.5501 6.79268 4.59063 7.88874 4.37762C8.98481 4.16462 10.0782 4.75774 10.4973 5.79267L9.17333 6.12333C8.9327 5.7508 8.47546 5.58126 8.05013 5.70686C7.6248 5.83245 7.333 6.22318 7.33333 6.66667V7.33333H9.33333V8.66667H7.33333V10H10.6667V11.3333H5.33333V10H5.99999Z" fill="#001018"/>
</svg>

<svg width="16" height="16" fill="none" xmlns="http://www.w3.org/2000/svg"><path fill-rule="evenodd" clip-rule="evenodd" d="M14 2H2a.667.667 0 0 0-.667.667v10.666c0 .368.299.667.667.667h12a.667.667 0 0 0 .667-.667V2.667A.667.667 0 0 0 14 2zm-8 8V8.667h-.667V7.333H6v-.666a2.334 2.334 0 0 1 4.497-.874l-1.324.33a1 1 0 0 0-1.84.544v.666h2v1.334h-2V10h3.334v1.333H5.333V10H6z" fill="#001018"/></svg>
